browser/images/lc_paralefttoright.svg

<svg viewBox="0 0 24 24" xmlns="http://www.w3.org/2000/svg"><path d="m13 2c-3.3137085 0-6 2.6862915-6 6 0 3.313708 2.6862915 6 6 6h1v8h1v-19h2v19h1v-19h1 3v-1z" fill="#3a3a38"/><path d="m6.5 13c-.127809 0-.2555807.04855-.3535157.146484-.1958679.195869-.1958679.513116 0 .708985l3.1484378 3.148437h-6.792969c-.277 0-.5.223-.5.5s.223.5.5.5h6.792969l-3.1484378 3.148438c-.195868.195868-.1958679.513115 0 .708984.097935.09793.2257067.146484.3535157.146484.127808 0 .2575387-.04855.3554687-.146484l4.0000003-4.003906c.04702-.04701.08407-.103236.109375-.166016.02334-.0579.03711-.12105.03711-.1875s-.01377-.129596-.03711-.1875c-.0253-.06278-.06236-.119003-.109375-.166016l-4.0000009-4.003906c-.097929-.09793-.2276601-.146484-.3554681-.146484z" fill="#1e8bcd"/></svg>

<svg viewBox="0 0 24 24" xmlns="http://www.w3.org/2000/svg">
  <path
     d="M 13 2 C 9.6862915 2 7 4.6862915 7 8 C 7 11.313708 9.6862915 14 13 14 L 14 14 L 14 22 L 15 22 L 15 3 L 17 3 L 17 22 L 18 22 L 18 3 L 19 3 L 22 3 L 22 2 L 13 2 z M 13 3 L 14 3 L 14 13 L 13 13 C 10.238576 13 8 10.761424 8 8 C 8 5.2385763 10.238576 3 13 3 z "
     fill="#3a3a38" />
  <path
     d="m6.5 13c-.127809 0-.2555807.04855-.3535157.146484-.1958679.195869-.1958679.513116 0 .708985l3.1484378 3.148437h-6.792969c-.277 0-.5.223-.5.5s.223.5.5.5h6.792969l-3.1484378 3.148438c-.195868.195868-.1958679.513115 0 .708984.097935.09793.2257067.146484.3535157.146484.127808 0 .2575387-.04855.3554687-.146484l4.0000003-4.003906c.04702-.04701.08407-.103236.109375-.166016.02334-.0579.03711-.12105.03711-.1875s-.01377-.129596-.03711-.1875c-.0253-.06278-.06236-.119003-.109375-.166016l-4.0000009-4.003906c-.097929-.09793-.2276601-.146484-.3554681-.146484z"
     fill="#1e8bcd" />
</svg>
